X: 136006
T: BIDDY OF SLIGO
Q: "Irish Jig."
R: Jig.
%R: jig
B: James Kerr "Merry Melodies" v.1 p.36 s.0 #6
Z: 2016 John Chambers <jc:trillian.mit.edu>
N: Initial pickup notes conflict with the rhythms of repeats; not fixed.
M: 6/8
L: 1/8
K: D
vfe |\
vd2vA AFA | BGB Afe | vd2vA AFA | g3 uf2ue |\
d2A AFA | BGB A2f | aba agf | e3 d2 :|
|: ua |\
faa ub2ua | faa b2a | faa faa | e2f gfe |\
faa b2a | faa b2a | aba agf | e3 d2 H:|

%%sep 1 1 500
%%sep 1 1 500

